X:1
T:Je ne suis point amoureux
T:Pierre Certon
T:Source : Livre XXV de 28 chansons nouvelles à 4 parties---Paris---P.Attaingnant---1547. Editor : André Vierendeels (05/08/18) Notes : Original clefs : C1, C3, C4, F4 Original note values have been quartered in 3-beat measures Original note values have been halved Editorial accidentals above the staff  
T:Je ne suis point amoureux
T:©
T:©
T:©
C:Pierre Certon
Z:©
%%score [ 1 [ 2 3 ] 4 ]
L:1/8
Q:1/4=120
M:3/4
K:F
V:1 treble nm="Alto" snm="A"
V:2 treble-8 nm="Tenor 1" snm="T 1"
V:3 treble-8 nm="Tenor 2" snm="T 2"
V:4 bass nm="Bass" snm="B"
V:1
 E2 F2 F2 | F4 F2 | E4 E2 | D2 F4 | E2 E2 z2 | E2 F2 F2 | F4 B2 | A2 G3 F | F4 E2 | %9
w: Je ne suis|point a-|mou- reux|de cent|mil- le,|ie ne suis|point en|a- mour de-|cep- *|
[M:2/2] F4 z2 F2 | E2 E2 D2 D2 | F2 F2 E3 F | GA G4 F2 | GFED E4 | z2 F2 F2 F2 | EDEF G2 G2 | %16
w: vant, mais|en- tre mil- le|ay choi- sy u-|ne _ fil- *|* * * * le,|qui est mon|soing _ _ _ _ et|
 A2 A2 F2 B2- | BA A4 G2 |[M:3/4] A4 z2 | B2 B2 B2 | A4 z2 | F2 F2 F2 | E4 B2 | A4 G2 | F4 F2 | %25
w: de qui suis ser-||vant,|que pleust à|dieu,|que pleust à|dieu qu'en-|sem- ble'heu-|reu- se-|
[M:2/2] E4 z2 E2 | E2 E2 FEFG | A2 A2 B2 A2 | A2 G2 AGFE | F4 E4 |: z2 F2 A2 B2 | A6 G2 | %32
w: ment u-|ser puis- sions _ _ _|_ et fi- nir|no- stre vi- * * *|* e,|el- le vi-|vant que|
 F2 F2 F4 | D4 C4- | C4 z2 C2 | C2 C2 D4 | z2 F2 F2 F2 | G4 G4 | A6 A2 | G2 F4 E2 | F8 :| %41
w: ie ne sois|mou- rant,|_ el-|le mou- rant,|el- le mou-|rant, que|ie ne|sois en vi-|e.|
V:2
 c2 d2 d2 | c4 c2 | c4 c2 | A2 d4 | c2 c2 z2 | c2 d2 d2 | d4 f2 | e4 e2 | c4 c2 |[M:2/2] A4 z2 c2 | %10
w: Je ne suis|point a-|mou- reux|de cent|mil- le,|ie ne suis|point en|a- mour|de- cep-|vant, mais|
 c2 c2 B2 B2 | d2 d2 c2 c2 | e4 d4 | B2 c2 c2 c2 | d8 | z2 G2 c3 B | A2 F2 f4- | f4 d4 | %18
w: en- tre mil- le'ay|choi- sy u- ne|fil- *|le, qui est mon|soing|et de _|_ qui suis|_ ser-|
[M:3/4] d4 z2 | f2 f2 f2 | f4 z2 | d2 d2 d2 | c4 d2 | c4 c2 | A4 B2 |[M:2/2] c4 z2 c2 | %26
w: vant,|que pleust à|dieu,|que pleust à|dieu qu'en-|sem- ble'heu-|reu- se-|ment u-|
 c2 c2 d2 d2 | f6 e2 | f2 e2 c4- | c4 c4 |: z2 c2 f2 f2 | f6 e2 | d2 d2 d4 | B4 G4- | G4 z2 A2 | %35
w: ser puis- sions et|fi- nir|no- stre vi-|* e,|el- le vi-|vant que|ie ne sois|mou- rant,|_ el-|
 A2 A2 BABc | d4 z2 d2 | d2 d2 e4 | f4 e2 e2 | d2 d2 c4 | A8 :| %41
w: le mou- rant, _ _ _|_ el-|le mou- rant,|que ie ne|sois en vi-|e.|
V:3
 G2 B2 B2 | A4 A2 | G4 G2 | F2 B4 | G2 G2 z2 | A2 A2 A2 | B4 d2 | c4 B2 | A2 G4 | %9
w: Je ne suis|point a-|mou- reux|de cent|mil- le,|ie ne suis|point en|a- mour|de- cep-|
[M:2/2] F2 F2 A4- | A2 A2 F2 F2 | B2 B2 G2 G2 | c3 B A4 | G4 z2 G2 | B2 B2 AGAB | c4 z2 c2 | %16
w: vant, mais en-|* tre mil- le|ay choi- sy u-|* ne fil-|le, qui|est mon soing _ _ _|_ et|
 c2 c2 d4 | c2 BA B4 |[M:3/4] A4 z2 | d2 d2 d2 | c4 z2 | B2 B2 B2 | G4 G2 | E4 E2 | F4 F2 | %25
w: de qui suis|ser- * * *|vant,|que pleust à|dieu,|que plaist à|dieu qu'en-|sem- ble'heu-|reu- se-|
[M:2/2] G2 G2 E2 E2 | A4 z2 A2 | A2 A2 d2 c2 | B4 A4- | A2 GF G4 |: z2 A2 c2 d2 | c3 c c2 c2 | %32
w: ment u- ser puis-|sions et|fi- nir no- stre|vi- *|* * * e,|el- le vi-|vant que ie ne|
 A2 A2 B4 | z2 F2 E3 E | E2 E2 F4 | z2 F2 F2 F2 | B4 z2 B2 | B2 B2 c4- | c2 c2 c2 c2 | B3 A G4 | %40
w: sois mou- rant,|el- le mou-|rant, el- le,|el- le mou-|rant, el-|le mou- rant,|_ que ie ne|sois en vi-|
 F8 :| %41
w: e.|
V:4
 C,2 B,,2 B,,2 | F,,4 F,,2 | C,4 C,2 | D,2 B,,4 | C,2 C,2 z2 | A,,2 D,2 D,2 | B,,4 B,,2 | %7
w: Je ne suis|point a-|mou- reux|de cent|mil- le,|ie ne suis|point en|
 C,3 D, E,2 | F,2 C,4 |[M:2/2] F,,4 z2 F,,2 | A,,2 A,,2 B,,3 B,, | B,,2 B,,2 C,4- | C,2 C,2 D,4 | %13
w: a- * mour|de- cep-|vant, mais|en- tre mil- le'ay|choi- sy u-|* ne fil-|
 G,,2 C,2 C,2 C,2 | B,,A,,B,,C, D,4 | C,4 C,4 | F,3 E, D,2 B,,2 | F,4 G,4 |[M:3/4] D,4 z2 | %19
w: le, qui est mon|soing _ _ _ _|_ et|de _ _ qui|suis ser-|vant,|
 B,,2 B,,2 B,,2 | F,4 z2 | B,,2 B,,2 B,,2 | C,4 G,,2 | A,,4 C,2 | D,4 D,2 |[M:2/2] C,4 z2 C,2 | %26
w: que pleust à|dieu,|que pleust à|dieu qu'en-|sem- ble'heu-|reu- se-|ment u-|
 A,,2 A,,2 D,4- | D,2 D,2 B,,2 C,2 | D,2 E,2 F,4- | F,4 C,4 |: z2 F,2 F,2 B,,2 | F,6 C,2 | %32
w: ser puis- sions|_ fi- nir no-|* stre vi-|* e,|el- le vi-|vant que|
 D,2 D,2 B,,4 | B,,4 C,4- | C,4 F,,4 | F,,2 F,,2 B,,4- | B,,4 B,,4 | G,,2 G,,2 C,4 | %38
w: ie ne sois|mou- rant,|_ el-|le mou- rant,|_ el-|le mou- rant,|
 F,,4 A,,2 A,,2 | B,,2 B,,2 C,4 | F,,8 :| %41
w: que ie ne|sois en vi-|e.|

